icons/drive-line.svg

<svg viewBox="0 0 24 24" fill="currentColor" xmlns="http://www.w3.org/2000/svg">
    <path d="M9.09742 6.15015L4.31009 14.4431L6.06471 17.4746L10.8502 9.18597L9.09742 6.15015ZM7.79701 18.4742H17.3651L19.1162 15.44H9.54877L7.79701 18.4742ZM19.1109 13.44L14.3252 5.15002H10.8294L15.6156 13.44H19.1109ZM8.52 3.15002H15.48L22 14.4444L18.52 20.4742H5.49L2 14.4444L8.52 3.15002ZM12.0049 11.186L10.7035 13.44H13.3062L12.0049 11.186Z"/>
</svg>

<svg xmlns="http://www.w3.org/2000/svg" viewBox="0 0 24 24">
    <g>
        <path fill="none" d="M0 0h24v24H0z"/>
        <path fill-rule="nonzero" d="M9.097 6.15L4.31 14.443l1.755 3.032 4.785-8.29L9.097 6.15zm-1.3 12.324h9.568l1.751-3.034H9.55l-1.752 3.034zm11.314-5.034l-4.786-8.29H10.83l4.787 8.29h3.495zM8.52 3.15h6.96L22 14.444l-3.48 6.03H5.49L2 14.444 8.52 3.15zm3.485 8.036l-1.302 2.254h2.603l-1.301-2.254z"/>
    </g>
</svg>
